X: 1
T: OUR BOYS -- REEL
B: Ryan's Mammoth Collection of Fiddle Tunes
R: REEL
M: 2/4
L: 1/16
Z: Contributed 20000427021324 by Ivan Bradley bradleyi:peoplepc.com
K: A
(3(uefg) |\
a2ed cAdB | cAdc B2(3(efg) | a2ed cAdB | cABG A2 :|
|: ug |\
ae (3(fga) gedB | ge (3(fga) b3b | ge (3(fga) gedc | cABG A2 :|
